X:1
T:Jingle Bells
M:4/4
L:1/4
Q:1/4=140
K:G
D B A G | D2 D2 | D B A G | E4 |
E c B A | F4 | d d c A | B4 |
D B A G | D2 D2 | D B A G | E E E E |
E c B A | d d d d | e d c A | G4 |
